svg/clipboard_remove.svg

<svg xmlns="http://www.w3.org/2000/svg" viewBox="0 0 24 24"><path d="M19 3h-4.18C14.4 1.84 13.3 1 12 1s-2.4.84-2.82 2H5c-1.1 0-2 .9-2 2v14a2 2 0 0 0 2 2h14c1.11 0 2-.89 2-2V5a2 2 0 0 0-2-2m-7 0c.55 0 1 .45 1 1s-.45 1-1 1-1-.45-1-1 .45-1 1-1m3.54 12.12-1.42 1.42L12 14.41l-2.12 2.13-1.41-1.42L10.59 13l-2.12-2.12 1.41-1.41L12 11.59l2.12-2.12 1.42 1.41L13.41 13z"/></svg>

<?xml version="1.0" encoding="UTF-8"?><!DOCTYPE svg PUBLIC "-//W3C//DTD SVG 1.1//EN" "http://www.w3.org/Graphics/SVG/1.1/DTD/svg11.dtd"><svg xmlns="http://www.w3.org/2000/svg" xmlns:xlink="http://www.w3.org/1999/xlink" version="1.1" id="mdi-clipboard-remove" width="24" height="24" viewBox="0 0 24 24"><path d="M19 3H14.82C14.4 1.84 13.3 1 12 1S9.6 1.84 9.18 3H5C3.9 3 3 3.9 3 5V19C3 20.11 3.9 21 5 21H19C20.11 21 21 20.11 21 19V5C21 3.9 20.11 3 19 3M12 3C12.55 3 13 3.45 13 4S12.55 5 12 5 11 4.55 11 4 11.45 3 12 3M15.54 15.12L14.12 16.54L12 14.41L9.88 16.54L8.47 15.12L10.59 13L8.47 10.88L9.88 9.47L12 11.59L14.12 9.47L15.54 10.88L13.41 13L15.54 15.12Z" /></svg>
